X:2
T:Alan Brown
S:Willie Hunter & Violet Tulloch
S:Dominique Renaudin <domren:free.fr> scots_music 2005-11-18
M:C
K:D
DC | DCDF EDCE | DCDF Adfa | gfef fedf | edcB AGFE |
     DCDF EDCE | DCDF Adfa | gfed eAGE | FDD2 D2 :|
EF | GFED CEA,C | D2FA BDGB | A^GAd faff | edcB AGFE |
     DCDF EDCE | DCDF Adfa | gfed eAGE | FDD2 D2 :|
